X:2
T:An Dro
R:an dro
H:Also in Amix, #3
O:Bretagne
Z:id:hn-andro-2
M:2/4
L:1/16
Q:1/4=100
K:Dmix
FADE F2FF | GFGA B2cB | A2G2 F2FF |1 GFEG F3F :|2 GFEG F3A ||
|: B2c2 G3A | BcBA G3A | B2c2 F2FF |1 GFEG F3A :|2 GFEG F3F ||

